!!!!SEGMENT: pl-gd--ee-2628--006-007_stabile-annibale--il-terzo-libro-de-madrigali-a-cinque-voci-veramente-in-amore.krn
!!!cenid: 15xx:1074
!!!COM: Stabile, Annibale
!!!COM-rismid: pe30009662
!!!CDT:
!!!CNT:
!!!GTL: Il terzo libro de madrigali a cinque voci
!!!OTL: Veramente in Amore
!!!OMV: 007
!!!PDT: 1585
!!!AGN:
!!!SMS-siglum: PL-GD
!!!SMS-shelfmark: Ee 2628
!!!SMS-shelfwork: 006-007 G
!!!SMS-variant:
!!!SMS-altvar:
!!!NIFC-rismid: 990060530
!!!URL-scan: https://repozytorium.nifc.pl/islandora/object/pl-gd%3A66139/datastream/PDF/view
!!!ONB-nifc: UWAGA: Canto: s. 90-101, Tenore: s. 246-257, Basso: s. 402-413, Quinto: s. 724-735. Dla głosu Alto proszę skorzystać z https://pbc.gda.pl/dlibra/publication/87582/edition/79411/content, str. 25-48. Uwaga: utwory podzielone wg spisu treści dostępnych na końcu ksiąg – proszę sprawdzać sąsiednie tytuły. Głos Quinto proszę umieszczać wg ambitusu (może się różnić w zależności od utworu).
!!!AIN: 1 alto 1 bass 1 soprn 1 tenor   1 vox
!!!key: d
**kern	**text	**kern	**text	**kern	**text	**kern	**text	**kern	**text
*part5	*part5	*part4	*part4	*part3	*part3	*part2	*part2	*part1	*part1
*staff5	*staff5	*staff4	*staff4	*staff3	*staff3	*staff2	*staff2	*staff1	*staff1
*I"BASSO	*	*I"TENORE	*	*I"ALTO	*	*I"CANTO	*	*I"QVINTO	*
*I'B	*	*I'T	*	*I'A	*	*I'S	*	*I'V	*
*ICvox	*	*ICvox	*	*ICvox	*	*ICvox	*	*ICvox	*
*Ibass	*	*Itenor  	*	*Ialto	*	*Isoprn	*	*Ivox	*
*clefC4	*	*clefC3	*	*clefC2	*	*clefG2	*	*clefC3	*
*k[b-]	*	*k[b-]	*	*k[b-]	*	*k[b-]	*	*k[b-]	*
*d:	*	*d:	*	*d:	*	*d:	*	*d:	*
*M2/1	*	*M2/1	*	*M2/1	*	*M2/1	*	*M2/1	*
*met(C)	*	*met(C)	*	*met(C)	*	*met(C)	*	*met(C)	*
=1-	=1-	=1-	=1-	=1-	=1-	=1-	=1-	=1-	=1-
!	!	!	!	!LO:TX:t=P:problem:podwójnie zapisany znak przykluczowy: B- b-	!	!	!	!	!
4d\	VE-	00r	.	2.f\	VEr a-	4a/	VEr a-	2r	.
4d\	-ra-	.	.	.	.	4a/	-men-	.	.
2d\	-mente	.	.	.	.	2a/	-te	4d\	VE-
.	.	.	.	4f\	-men-	.	.	4d\	-ra-
4B-\	in	.	.	2f\	-te	4dd\	in	2d\	-mente
4d\	a-	.	.	.	.	4ff\	a-	.	.
2c\	-mo-	.	.	4g\	in	2ee\	-mo-	4e\	in
.	.	.	.	4a\	a-	.	.	4f\	a-
=2-	=2-	=2-	=2-	=2-	=2-	=2-	=2-	=2-	=2-
1B-	-re	.	.	1b-	-mo-	1dd	-re	2g\	-mo-
.	.	.	.	.	.	.	.	1f	-re
2B-\	Si	.	.	2b-\	-re	2dd\	Si	.	.
2.B-\	pro-	.	.	2b-\	Si	2.dd\	pro-	2f\	Si
=3-	=3-	=3-	=3-	=3-	=3-	=3-	=3-	=3-	=3-
.	.	0r	.	4b-\	pro-	.	.	4.f\	pro-
4F/	-ua o-	.	.	4a\	-ua	4cc\	-ua o -	.	.
.	.	.	.	.	.	.	.	8e\	.
4G/	-gni	.	.	2.g\	ogni	4b-/	-gni	4d\	.
4G/	do-	.	.	.	.	4b-/	do-	4e\	-ua o-
*custos:A	*	*	*	*	*	*custos:a	*	*custos:c#	*
!LO:LB:g=original	!	!	!	!	!	!LO:LB:g=original	!	!LO:LB:g=original	!
2A/	-lo-	.	.	.	.	1a	-lo-	4c#X/	-gni
.	.	.	.	4f\	do-	.	.	2d\	do-
2A/	-re	.	.	2e/	-lo-	.	.	.	.
.	.	.	.	.	.	.	.	4c#X/	-lo-
=4-	=4-	=4-	=4-	=4-	=4-	=4-	=4-	=4-	=4-
2r	.	2r	.	2f#X\	-re	2a/	-re	2d\	-re
*	*	*	*	*custos:f#	*	*	*	*	*
!	!	!	!	!LO:LB:g=original	!	!	!	!	!
4D/	Ver-	4d\	Ver-	4f#\	Ver-	4dd\	Ve-	4a\	Ve-
4D/	-a-	4d\	-a-	4f#\	-a-	4dd\	-ra-	4a\	-ra-
2D/	-men-	2d\	-men-	2a\	-men-	2dd\	-men-	2f\	-men-
4G/	-te in	4B-/	-te in	4b-\	-te in	4dd\	-te in	4g\	-te in
4B-\	a-	4d\	a-	4b-\	a-	4b-/	a-	4f\	a-
=5-	=5-	=5-	=5-	=5-	=5-	=5-	=5-	=5-	=5-
2F/	-mo-	2c/	-mo-	2a\	-mo-	2cc\	-mo-	2f\	-mo-
2BB-/	-re	2B-/	-re	4b-\	-re	2dd\	-re	1f	-re
.	.	.	.	4b-\	.	.	.	.	.
2B-\	Si	2d\	Si	2b-\	pro-	2r	.	.	.
1B-\	pro-	2.d\	pro-	2.b-\	-ua og-	2dd\	Si	2f\	Si
=6-	=6-	=6-	=6-	=6-	=6-	=6-	=6-	=6-	=6-
.	.	.	.	.	.	2dd\	pro-	1f	pro-
.	.	4B-/	-ua o-	4b-\	-ni	.	.	.	.
*	*	*custos:c	*	*	*	*	*	*	*
!G	!	!LO:LB:g=original	!	!	!	!b	!	!	!
2F/	-ua o-	4c/	-gni	2a\	do-	2cc\	-ua o-	.	.
.	.	4A/	do-	.	.	.	.	.	.
*custos:G	*	*	*	*	*	*custos:b-	*	*custos:d	*
!LO:LB:g=original	!	!	!	!	!	!LO:LB:g=original	!	!LO:LB:g=original	!
1G	-gni	4.B-/	-lo-	2.g\	-lo-	8b-/	-gni	2d\	-ua o-
.	.	.	.	.	.	8a/	.	.	.
.	.	.	.	.	.	8g/	.	.	.
.	.	8c/	.	.	.	8a/	.	.	.
.	.	2d\	.	.	.	8b-/	.	4.g\	-gni
.	.	.	.	.	.	8cc\	.	.	.
.	.	.	.	4d/	-re	8dd\	.	.	.
.	.	.	.	.	.	8b-\	.	8f\	.
=7-	=7-	=7-	=7-	=7-	=7-	=7-	=7-	=7-	=7-
1C	do-	4c/	-re	4.g\	o-	8cc\	.	8e-X\	.
.	.	.	.	.	.	8dd\	.	8d\	.
.	.	4c/	og-	.	.	8ee\	.	8cny\	.
.	.	.	.	8fny\	.	8dd\	.	8d\	.
.	.	4c/	-ni	4g\	.	8cc\	.	8e-\	.
.	.	.	.	.	.	8b-/	.	8d\	.
.	.	4e-X\	do-	2a\	-gni	8a/	.	8c/	.
.	.	.	.	.	.	8g/	.	8B-/	.
1D	-lo-	1d	-lo-	.	.	4f#X/	.	4A/	.
.	.	.	.	4g\	do-	4g/	do-	4B-/	do-
.	.	.	.	2f#X\	-lo-	2a/	-lo-	2A/	-lo-
=8-	=8-	=8-	=8-	=8-	=8-	=8-	=8-	=8-	=8-
!	!	!	!	!g	!	!LO:N:acc=#	!	!	!
2G/	-re	1.d	-re	2g\	-re	2bn/	-re	1G	-re
*	*	*	*	*custos:g	*	*	*	*	*
!	!	!	!	!LO:LB:g=original	!	!	!	!	!
1G	Ma	.	.	1g	Ma	1b	Ma	.	.
.	.	.	.	.	.	.	.	1r	.
2c\	via	2eny\	Ma	2a\	via	2cc\	via	.	.
=9-	=9-	=9-	=9-	=9-	=9-	=9-	=9-	=9-	=9-
2B-\	piu	2f\	via	2b-\	piu	2dd\	piu	1r	.
*	*	*custos:g	*	*	*	*	*	*	*
!	!	!LO:LB:g=original	!	!	!	!	!	!	!
2.G/	ch`al-	1g	piu	2.b-\	ch`al-	1dd	ch`al-	.	.
.	.	.	.	.	.	.	.	2B-/	Ma
4F/	-tro a-	.	.	4a\	-tr`a-	.	.	.	.
2E-X/	-uan-	2r	.	1g\	-uan-	2cc\	-tr`a-	2c/	via
=10-	=10-	=10-	=10-	=10-	=10-	=10-	=10-	=10-	=10-
1D	-za	1r	.	.	.	2b-y\	-uan-	2d\	piu
*	*	*	*	*	*	*custos:a	*	*	*
!	!	!	!	!	!	!LO:LB:g=original	!	!	!
.	.	.	.	2fny\	-za	1a	-za	2.d\	ch`al-
2r	.	2f\	Ma	2r	.	.	.	.	.
.	.	.	.	.	.	.	.	4c/	-tr`a-
*	*	*	*	*	*ij	*	*	*	*
4r	.	2g\	via	2d/	Ma	2r	.	2B-/	-uan-
2d\	ch`al-	.	.	.	.	.	.	.	.
*	*	*	*	*	*	*	*	*custos:A	*
!	!	!	!	!	!	!	!	!LO:LB:g=original	!
=11-	=11-	=11-	=11-	=11-	=11-	=11-	=11-	=11-	=11-
.	.	4a\	piu	4f\	via	2r	.	2A/	-za
4c\	-to a-	2a\	ch`al-	4e\	piu	.	.	.	.
2B-\	-uan-	.	.	4f\	ch`al-	1dd	ch`al-	2r	.
.	.	4g\	-tr`a-	4g\	-tr`a-	.	.	.	.
1A	-za	2f\	-uan-	2a\	-uan-	.	.	2r	.
.	.	4e\	-za	4a\	-za	2cc\	-tro a-	4r	.
*	*	*	*	*	*Xij	*	*	*	*
.	.	4f\	Go-	4a\	Go-	.	.	4A/	Go-
=12-	=12-	=12-	=12-	=12-	=12-	=12-	=12-	=12-	=12-
00r	.	4d\	-der	4f\	-der	2b-/	-uan-	4B-/	-der
.	.	4e\	ſol	4g\	ſol	.	.	4G/	ſol
.	.	4.f\	v-	2.a\	v-	4a/	-za	4.d\	v-
.	.	.	.	.	.	4dd\	Go-	.	.
.	.	8g\	-na	.	.	.	.	8eny\	-na
.	.	2a\	vol-	.	.	4cc\	-der	4f\	vol-
.	.	.	.	4cc\	-na	4a/	ſol	4F/	-ta
.	.	2d\	-ta	4f\	vol-	4a/	v-	4F/	et per-
.	.	.	.	4d/	-ta et	4b-/	-na	4G/	-der
*	*	*	*	*custos:f	*	*	*	*	*
!	!	!	!	!LO:LB:g=original	!	!	!	!	!
=13-	=13-	=13-	=13-	=13-	=13-	=13-	=13-	=13-	=13-
.	.	2r	.	4f\	per-	2cc\	vol-	2A/	po-
.	.	.	.	4e/	-der	.	.	.	.
.	.	4r	.	4d/	po-	2dd\	-ta et	2B-/	-i
.	.	4d\	et	8d/	-i	.	.	.	.
.	.	.	.	8f\	et	.	.	.	.
*	*	*custos:e-	*	*	*	*	*	*	*
!	!	!LO:LB:g=original	!	!	!	!	!	!	!
.	.	4e-X\	per-	4g\	per-	4b-/	per-	1r	.
.	.	4g\	-der	4b-\	-der	4b-/	-der	.	.
.	.	2f\	po-	2a\	po-	2cc\	po-	.	.
*custos:B-	*	*	*	*	*	*	*	*	*
!LO:LB:g=original	!	!	!	!	!	!	!	!	!
=14-	=14-	=14-	=14-	=14-	=14-	=14-	=14-	=14-	=14-
4r	.	2B-/	-i	4b-\	-i	4dd\	-i	4r	.
4.B-\	Tut-	.	.	4.b-\	Tut-	4.dd\	Tu-	4.f\	Tu-
.	.	2r	.	.	.	.	.	.	.
8B-\	-ti	.	.	8b-\	-ti i	8dd\	-ti i	8f\	-ti i
*	*	*	*	*	*	*custos:b-	*	*	*
!	!	!	!	!	!	!LO:LB:g=original	!	!	!
4B-\	di-	.	.	4g\	di-	4b-/	di-	4d\	di-
4A/	-let-	1r	.	4a\	-let-	4cc\	-let-	4e\	-let-
4G/	-ti	.	.	4b-\	-ti	4dd\	-ti	4g\	-ti
*	*	*	*ij	*	*	*	*	*custos:f#	*
!	!	!	!	!	!	!	!	!LO:LB:g=original	!
2d\	ſuo-	.	.	2a\	ſuo-	2dd\	ſuo-	2f#X\	ſuo-
=15-	=15-	=15-	=15-	=15-	=15-	=15-	=15-	=15-	=15-
2G/	-i	4r	.	4b-\	-i	4dd\	-i	2g\	-i
.	.	4d\	et	4b-\	et	4dd\	et	.	.
2r	.	4e-X\	per-	4g\	per-	4b-/	per-	2r	.
.	.	4g\	-der	4b-\	-der	4b-/	-der	.	.
1r	.	2f\	po-	2a\	po-	2cc\	po-	00r	.
*	*	*	*	*custos:a	*	*	*	*	*
!	!	!	!	!LO:LB:g=original	!	!	!	!	!
.	.	4f\	-i	4a\	-i	4cc\	-i	.	.
*	*	*	*Xij	*	*	*	*	*	*
.	.	4.a\	Tut-	4.cc\	Tut-	4.ff\	Tut-	.	.
=16-	=16-	=16-	=16-	=16-	=16-	=16-	=16-	=16-	=16-
2F/	Ma	.	.	.	.	.	.	.	.
.	.	8a\	-ti i	8cc\	-ti i	8ff\	-ti 	.	.
.	.	4a\	di-	4cc\	di-	4ff\	di-	.	.
2G/	via	4.g\	-let-	4cc\	-let-	4ee\	-let-	.	.
.	.	.	.	4b-\	-ti	4dd\	-ti	.	.
.	.	8f\	-ti	.	.	.	.	.	.
2A/	pi	2eny\	ſuo-	2a\	ſuo-	2cc#X\	ſuo-	.	.
2.d\	ch`al-	2f\	-i	2a\	-i	2dd\	-i	.	.
=17-	=17-	=17-	=17-	=17-	=17-	=17-	=17-	=17-	=17-
.	.	2r	.	2f\	Ma	2r	.	.	.
4c\	-tro au-	.	.	.	.	.	.	.	.
2B-\	-an-	2d\	Go-	2g\	via	2b-/	Ma	.	.
*	*	*custos:e	*	*	*	*	*	*	*
!	!	!LO:LB:g=original	!	!	!	!dd	!	!	!
2A/	-za	4e\	-der	4a\	piu	2ccny\	via	0r	.
.	.	4f\	ſol	2a\	ch`al-	.	.	.	.
*	*	*	*	*	*	*custos:dd	*	*	*
!	!	!	!	!	!	!LO:LB:g=original	!	!	!
2B-\	Go-	8f\	v-	.	.	4dd\	piu	.	.
.	.	8e\	.	.	.	.	.	.	.
.	.	8d\	.	4g\	-tro	2dd\	ch`al-	.	.
.	.	8c\	.	.	.	.	.	.	.
=18-	=18-	=18-	=18-	=18-	=18-	=18-	=18-	=18-	=18-
4G/	-der	4B-/	.	4b-\	a-	.	.	.	.
4A/	ſol	4c/	-na	2a\	-uan-	4cc\	-tro a-	.	.
*custos:B-	*	*	*	*	*	*	*	*	*
!LO:LB:g=original	!	!	!	!	!	!	!	!	!
4.B-\	v-	8d\	vol-	.	.	2b-/	-uan-	.	.
.	.	8c\	.	.	.	.	.	.	.
.	.	8d\	.	4g\	-za	.	.	.	.
8c\	-na	8e\	.	.	.	.	.	.	.
2d\	vol-	2f#X\	.	4r	.	2a/	-za	1r	.
.	.	.	.	4a\	Go-	.	.	.	.
4G/	-ta et	4g\	-ta et	4b-\	-der	4r	.	.	.
2G/	per-	2d\	per-	4g\	ſol	4b-/	Go-	.	.
*	*	*	*	*custos:b-	*	*	*	*	*
!	!	!	!	!LO:LB:g=original	!	!	!	!	!
=19-	=19-	=19-	=19-	=19-	=19-	=19-	=19-	=19-	=19-
.	.	.	.	4b-\	v-	4g/	-der	2r	.
4F#X/	-der	4d\	-der	4a\	-na	4a/	ſol	.	.
1G	po-	2d\	po-	4.g\	vol-	4.b-/	v-	4r	.
.	.	.	.	.	.	.	.	4.g\	Tu-
.	.	.	.	8a\	.	8cc\	-na	.	.
.	.	2d\	-i	4b-\	.	2.dd\	vol-	.	.
.	.	.	.	.	.	.	.	8g\	-ti i
.	.	.	.	4b-\	-ta	.	.	4g\	di-
2D/	-i	4r	.	8a\	et	.	.	4fny\	-let-
.	.	.	.	8g\	per-	.	.	.	.
.	.	4.d\	Tut-	8f\	.	4ff\	-ta et	4d\	-ti
.	.	.	.	8e\	.	.	.	.	.
=20-	=20-	=20-	=20-	=20-	=20-	=20-	=20-	=20-	=20-
2r	.	.	.	4d/	.	4ff\	per-	2a\	ſuo-
.	.	8d\	-ti i	.	.	.	.	.	.
.	.	4c/	di.-	4e/	-der	4ee\	-der	.	.
*	*	*custos:B-	*	*	*	*	*	*	*
!	!	!LO:LB:g=original	!	!	!	!	!	!	!
4r	.	4B-/	-let-	4f\	po-	2dd\	po-	4d\	-i
*	*	*	*	*	*	*	*	*	*ij
!	!	!	!	!	!	!	!	!LO:N:acc=#	!
4.G/	Tut-	4G/	-ti	4g\	-i	.	.	4.Bn/	Tu-
.	.	4.d\	ſuo-	4g\	Tut-	2dd\	-i	.	.
8G/	-ti i	.	.	.	.	.	.	8B/	-ti i
4G/	di-	.	.	8g\	-ti i	.	.	4B/	di-
.	.	8e\	.	8g\	di-	.	.	.	.
4Fny/	-let-	2fny\	.	4a\	-let-	2r	.	4c/	-let-
4D/	-ti	.	.	4a\	-ti	.	.	4d\	-ti
=21-	=21-	=21-	=21-	=21-	=21-	=21-	=21-	=21-	=21-
2A/	ſuo-	2e\	-i	2a\	ſuo-	2r	.	2c#X/	ſuo-
*	*	*	*	*	*	*	*	*custos:d	*
!	!	!	!	!cc	!	!	!	!LO:LB:g=original	!
2D/	-i	2r	.	2a\	-i	4r	.	4d\	-i
*	*	*	*	*	*	*	*	*	*Xij
.	.	.	.	.	.	4.ff\	Tut-	4.d\	Tut-
*	*	*	*ij	*custos:cc	*ij	*	*	*	*
!	!	!	!	!LO:LB:g=original	!	!	!	!	!
0r	.	4r	.	4r	.	.	.	.	.
.	.	.	.	.	.	8ff\	-ti i	8d\	-ti i
.	.	4.a\	Tut-	4.cc\	Tut-	4ff\	di-	4A/	di-
*	*	*	*	*	*	*custos:ee	*	*	*
!	!	!	!	!	!	!LO:LB:g=original	!	!	!
.	.	.	.	.	.	4ee\	-let-	2cny/	-let-
.	.	8a\	-ti i	8cc\	-ti i	.	.	.	.
.	.	4e\	di-	4g\	di-	4ee\	-ti	.	.
=22-	=22-	=22-	=22-	=22-	=22-	=22-	=22-	=22-	=22-
.	.	4f\	-let-	4b-\	-let-	1dd	ſuo-	2d\	-ti
.	.	4f\	-ti	2a\	-ti	.	.	.	.
.	.	2d\	ſuo-	.	.	.	.	2B-y/	ſuo-
.	.	.	.	4g\	ſuo-	.	.	.	.
2r	.	2e\	i	2a\	-i	2cc#X\	-i	1A	-i
*	*	*	*Xij	*	*Xij	*	*	*	*
2D/	et	2f\	et	2a\	et	2dd\	et	.	.
*custos:G	*	*	*	*	*	*	*	*	*
!LO:LB:g=original	!	!	!	!	!	!	!	!	!
=23-	=23-	=23-	=23-	=23-	=23-	=23-	=23-	=23-	=23-
!	!	!	!	!	!	!LO:N:acc=#	!	!	!
2.G/	vi-	2.d\	vi-	2.g\	vi-	2.bn/	vi-	0r	.
4F/	-uer	4f\	-uer	4a\	-uer	4ccny\	-uer	.	.
2B-\	ſem-	2f\	ſem-	2b-\	ſem-	2dd\	ſem-	.	.
2G/	-pre	2g\	-pre	2b-\	-pre	2dd\	-pre	.	.
*	*	*custos:e	*	*	*	*	*	*	*
!	!	!LO:LB:g=original	!	!	!	!	!	!	!
=24-	=24-	=24-	=24-	=24-	=24-	=24-	=24-	=24-	=24-
2A/	mai	1e	mai	2a\	mai	1cc	mai	2r	.
4r	.	.	.	2a\	fuor	.	.	2A/	et
4A/	fuor	.	.	.	.	.	.	.	.
4F#X/	di	1r	.	4a\	di	4r	.	2.d\	vi-
4G/	ſpe-	.	.	4b-\	ſpe-	4gg\	fuor	.	.
2A/	-ran-	.	.	2a\	-ran-	4ff\	di	.	.
.	.	.	.	.	.	2ee\	ſpe-	4c/	-uer
=25-	=25-	=25-	=25-	=25-	=25-	=25-	=25-	=25-	=25-
2D/	-za	2r	.	2a\	-za	.	.	4.f\	ſem-
.	.	.	.	.	.	4.dd\	-ran-	.	.
.	.	.	.	.	.	.	.	8d\	-pre
*	*	*	*ij	*	*	*	*	*	*
2r	.	2A/	et	2a\	et	.	.	4e\	mai
.	.	.	.	.	.	8cc#X\	.	.	.
.	.	.	.	.	.	4cc#\	.	4a\	fuor
*	*	*	*	*custos:a	*	*	*	*	*
!	!	!	!	!LO:LB:g=original	!	!a	!	!	!
00r	.	2.d\	vi-	4.a\	vi-	2dd\	-za	4.f\	di
.	.	.	.	8g\	.	.	.	8g\	ſpe-
*	*	*	*	*	*	*custos:a	*	*custos:a	*
!	!	!	!	!	!	!LO:LB:g=original	!	!LO:LB:g=original	!
.	.	.	.	4f\	.	4r	.	2a\	-ran-
.	.	4c/	-uer	4e/	-uer	4a/	et	.	.
=26-	=26-	=26-	=26-	=26-	=26-	=26-	=26-	=26-	=26-
.	.	4B-/	ſem-	4f\	ſem-	2.dd\	vi-	2d\	-za
.	.	4G/	-pre	4g\	-pre	.	.	.	.
.	.	2A/	mai	2e/	mai	.	.	2r	.
.	.	.	.	.	.	4ccny\	-uer	.	.
.	.	2r	.	4d/	fuor	4ff\	ſem-	2r	.
.	.	.	.	2dd\	di	4dd\	-pre	.	.
*	*	*	*Xij	*	*	*	*	*	*
.	.	2A/	fuor	.	.	2ee\	mai	1a\	fuor
.	.	.	.	8cc\	.	.	.	.	.
.	.	.	.	8b-\	.	.	.	.	.
=27-	=27-	=27-	=27-	=27-	=27-	=27-	=27-	=27-	=27-
.	.	2F/	di	2cc\	.	2ff\	fuor	.	.
.	.	2G/	ſpe-	2b-\	ſpe-	4ee\	di	2.g\	di
.	.	.	.	.	.	4dd\	ſpe-	.	.
1r	.	1A	-ran-	1a	-ran-	4cc#X\	-ran-	.	.
.	.	.	.	.	.	2dd\	.	4f\	ſpe-
.	.	.	.	.	.	.	.	2e\	-ran-
.	.	.	.	.	.	4cc#X\	.	.	.
=28-	=28-	=28-	=28-	=28-	=28-	=28-	=28-	=28-	=28-
2r	.	2d\	-za	1a	-za	2dd\	-za	2f\	-za
*	*	*	*	*	*	*	*ij	*	*
2D/	fuor	1d	di	.	.	2.ff\	du	4r	.
.	.	.	.	.	.	.	.	4F/	fuor
2BB-/	di	.	.	2b-\	fuor	.	.	2B-/	di
.	.	.	.	.	.	4dd\	ſpe-	.	.
2C/	ſpe-	2.c/	ſpe-	4a\	di	2ee-X\	-ran-	4r	.
.	.	.	.	4g\	ſpe-	.	.	4G/	ſpe-
=29-	=29-	=29-	=29-	=29-	=29-	=29-	=29-	=29-	=29-
1D	-ran-	.	.	4f#X\	-ran-	1dd	.	1d	-ran-
.	.	4B-/	-ran-	2g\	.	.	.	.	.
.	.	2A/	.	.	.	.	.	.	.
.	.	.	.	4f#X\	.	.	.	.	.
!LO:N:vis=00	!	!LO:N:vis=00	!	!LO:N:vis=00	!	!LO:N:vis=00	!	!LO:N:vis=00	!
!	!	!	!	!	!	!LO:N:acc=#	!	!	!
0.G	-za.	0G	-za.	0.g	-za	0.bn	-za	0.d	-za
=30-	=30-	=30-	=30-	=30-	=30-	=30-	=30-	=30-	=30-
.	.	1ryy	.	.	.	.	.	.	.
==	==	==	==	==	==	==	==	==	==
*-	*-	*-	*-	*-	*-	*-	*-	*-	*-
!!!system-decoration: [(s1,s2,s3,s4,s5)]
!!!ENC: Filip Voros
!!!END: 2022-07-09
!!!ENC: Jan Barakat
!!!END: 2022-08-02
